X:9
T:Keyhole, The
C:Chris Walshaw
R:scottische
M:C|
K:D
dfed d3 A|dcBA GFED|dfed d3 A|BABc dcBc|\
dfed d3 F|GFGA BABc|dcBA BAGF|GFEF D4 :|
EDEF G3 A|dcBA GFED|FEFG A4|dcBA BAFG|\
EDEF G3 F|GFGA BABc|dcBA BAGF|GFEF D4 :|

